assets/img/braze_icons/stop-circle.svg

<svg fill="none" height="24" viewBox="0 0 24 24" width="24" xmlns="http://www.w3.org/2000/svg"><path clip-rule="evenodd" d="m12 1c-6.07513 0-11 4.92487-11 11 0 6.0751 4.92487 11 11 11 6.0751 0 11-4.9249 11-11 0-6.07513-4.9249-11-11-11zm-3.89101 7.54601c-.10899.21391-.10899.49394-.10899 1.05399v4.8c0 .5601 0 .8401.10899 1.054.09588.1882.24886.3411.43702.437.21391.109.49394.109 1.05399.109h4.8c.5601 0 .8401 0 1.054-.109.1882-.0959.3411-.2488.437-.437.109-.2139.109-.4939.109-1.054v-4.8c0-.56005 0-.84008-.109-1.05399-.0959-.18816-.2488-.34114-.437-.43702-.2139-.10899-.4939-.10899-1.054-.10899h-4.8c-.56005 0-.84008 0-1.05399.10899-.18816.09588-.34114.24886-.43702.43702z" fill="#801ed7" fill-rule="evenodd"/></svg>

<svg width="24" height="24" viewBox="0 0 24 24" fill="none" xmlns="http://www.w3.org/2000/svg">
<path fill-rule="evenodd" clip-rule="evenodd" d="M12 1C5.92487 1 1 5.92487 1 12C1 18.0751 5.92487 23 12 23C18.0751 23 23 18.0751 23 12C23 5.92487 18.0751 1 12 1ZM8.10899 8.54601C8 8.75992 8 9.03995 8 9.6V14.4C8 14.9601 8 15.2401 8.10899 15.454C8.20487 15.6422 8.35785 15.7951 8.54601 15.891C8.75992 16 9.03995 16 9.6 16H14.4C14.9601 16 15.2401 16 15.454 15.891C15.6422 15.7951 15.7951 15.6422 15.891 15.454C16 15.2401 16 14.9601 16 14.4V9.6C16 9.03995 16 8.75992 15.891 8.54601C15.7951 8.35785 15.6422 8.20487 15.454 8.10899C15.2401 8 14.9601 8 14.4 8H9.6C9.03995 8 8.75992 8 8.54601 8.10899C8.35785 8.20487 8.20487 8.35785 8.10899 8.54601Z" fill="#801ED7"/>
</svg>
